!!!!SEGMENT: Wil3031-Je_ne_scaroys_chanter_ne_rire.krn
!!!id: Wil3031
!!!AGN: Chanson
!!!SCT: Bernstein (1984)
!!!voices: 3
!!!COM: Adrian Willaert
!!!OTL: Je ne sçaroys chanter ne rire
**kern	**kern	**kern
*part3	*part2	*part1
*staff3	*staff2	*staff1
*I"Bassus	*I"Tenor	*I"Superius
*I'B	*I'T	*I'S
*clefF4	*clefGv2	*clefGv2
*k[]	*k[]	*k[]
*C:	*C:	*C:
*M2/1	*M2/1	*M2/1
*met(C|)	*met(C|)	*met(C|)
=1	=1	=1
2r	1r	0r
2c	.	.
2B	2r	.
2A	2c	.
=2	=2	=2
2G	1d	1r
2F	.	.
2E	1e	2r
2G	.	2g
=3	=3	=3
4A	1c	2f
4B	.	.
4c	.	2e
4A	.	.
2B	2r	2d
2A	2c	[2c
=4	=4	=4
1G	1d	2c]
.	.	2B
1C	1e	2c
.	.	2G
=5	=5	=5
2r	1c	4A
.	.	4B
2C	.	4c
.	.	4A
2.D	2r	4B
.	.	4A
.	2f	[2d
4E	.	.
=6	=6	=6
2F	4f	4d]
.	4e	4c
2.G	4d	4B
.	4c	4A
.	2d	1B
4F	.	.
4E	[2e	.
4D	.	.
=7	=7	=7
2C	2e]	1A
2D	2.d	.
1E	.	2r
.	4c#i	.
.	4c#i	2G
.	8BL	.
.	8c#iJ	.
=8	=8	=8
1D	1d	2A
.	.	2B
2r	1e	1c
2A	.	.
=9	=9	=9
2G	2e	2r
2A	2e	2c
2E	[1e	2B
2A	.	2c
=10	=10	=10
2A	2e]	2A
4G	2f	2.d
4F	.	.
2G	2e	.
.	.	4c
2A	4d	[2c
.	4c	.
=11	=11	=11
1G	2d	2c]
.	2.e	2B
2r	.	1c
.	4d	.
2A	[2c	.
=12	=12	=12
2A	2c]	1e
2G	2B	.
2A	4c	2e
.	4B	.
[2c	4A	2e
.	4G	.
=13	=13	=13
2c]	1A	1.e
4B	.	.
4A	.	.
2G	1r	.
[2d	.	2f
=14	=14	=14
4d]	1r	2e
4c	.	.
1c	.	4d
.	.	4c
.	2r	2d
2B	2d	2d
=15	=15	=15
2.A	2e	1c
.	2f	.
8GL	.	.
8FJ	.	.
2E	1g	1e
2G	.	.
=16	=16	=16
2A	2r	2e
2B	2G	2e
4c	2.A	[1e
4B	.	.
4A	.	.
4G	4B	.
=17	=17	=17
2A	2c	2e]
2D	2.d	2f
1A	.	2.e
.	4c	.
.	2c	.
.	.	8dL
.	.	8cJ
=18	=18	=18
2G	2B	2d
2.F	2.A	2d
.	.	1c
4E	4G	.
4F	4A	.
4G	4B	.
=19	=19	=19
4A	2c	2r
4B	.	.
1c	2A	2c
.	1G	1d
2B	.	.
=20	=20	=20
1c	2r	1e
.	2.g	.
2r	.	1c
.	4f	.
2c	2e	.
=21	=21	=21
2B	2d	2r
2A	1c	2c
1G	.	1d
.	2B	.
=22	=22	=22
2r	2.c	1e
2c	.	.
.	4d	.
4c	2e	1c
4B	.	.
4A	2f	.
4G	.	.
=23	=23	=23
2A	2e	2r
2B	2d	2f
2A	[1a	4f
.	.	4e
[2F	.	4d
.	.	4c
=24	=24	=24
2F]	2a]	2d
2E	2g	2.e
2.F	2.a	.
.	.	4d
.	.	[2d
4G	8gL	.
.	8fJ	.
=25	=25	=25
1A	4e	2d]
.	4d	.
.	2e	2c#i
2r	1d	2d
2D	.	2f
=26	=26	=26
2A	2r	2e
2A	2c	2f
2B-X	2d	4f
.	.	4e
2B-i	2d	4f
.	.	4g
=27	=27	=27
2.c	2e	2a
.	2e	1g
4B-i	.	.
2A	2c	.
2A	2c	2f#i
=28	=28	=28
2G	2r	1g
2E	2c	.
2F	2d	1r
2G	2d	.
=29	=29	=29
2C	2e	2r
2C	2e	2G
2r	2c	2.A
2F	2c	.
.	.	4A
=30	=30	=30
2G	2r	2B
2A	2f	2c
2.B-i	4f	1d
.	4e	.
.	4d	.
4A	4c	.
=31	=31	=31
4G	2d	1r
4F	.	.
2G	2.e	.
2D	.	2r
.	4d	.
2F	[2d	2A
=32	=32	=32
1E	2d]	2e
.	2c#i	2e
2r	1d	2f
2D	.	2f
=33	=33	=33
2A	2r	2e
2A	2c	1f
2B-i	2d	.
2B-i	2d	4e
.	.	4d
=34	=34	=34
2A	2e	4c
.	.	4B
2A	2e	4c
.	.	4d
2r	2c	2e
2F	2c	2A
=35	=35	=35
2G	2r	2B
2A	2c	2c
2F	2d	2c
2G	2d	2B
=36	=36	=36
2C	2e	4c
.	.	4B
2C	2e	4A
.	.	4G
2r	2c	2.A
2F	2c	.
.	.	4B
=37	=37	=37
2E	2r	2c
2D	2f	2d
2.G	2e	1B
.	[2d	.
4F	.	.
=38	=38	=38
2G	4d]	2r
.	4c	.
2A	1c	2c
1G	.	2d
.	2B	2d
=39	=39	=39
2r	1c	2e
2C	.	2e
2F	2r	2c
2E	2G	2c
=40	=40	=40
2F	2A	2r
2A	2A	2c
2G	2B	2d
2G	2B	2d
=41	=41	=41
2r	2G	2e
2C	2G	2e
2F	2r	2c
2E	2G	2c
=42	=42	=42
2F	2A	2r
2D	2A	2f
2.G	2B	2e
.	2B	[2d
4F	.	.
=43	=43	=43
2E	2G	4d]
.	.	4c
4D	2G	1c
4C	.	.
1D	2r	.
.	2d	2B
=44	=44	=44
1C	2e	0c
.	1g	.
2r	.	.
2c	4f	.
.	4e	.
=45	=45	=45
2B	2d	2r
2.A	2.c	2f
.	.	2e
4G	4B	.
4F	4A	[2d
4E	4G	.
=46	=46	=46
2F	2A	2d]
2G	2.G	4c
.	.	4B
2C	.	2c
.	4A	.
[2G	4B	2d
.	4c	.
=47	=47	=47
2G]	4d	4B
.	4e	4c
2D	4f	4d
.	4g	4B
2F	4a	4c
.	4f	4d
2E	[2g	[2e
=48	=48	=48
4C	2g]	4e]
4D	.	4d
4E	4f	1c
4F	4e	.
1G	1d	.
.	.	2B
=49	=49	=49
00Cl	00cl	00cl
==	==	==
*-	*-	*-
!!!system-decoration: [*]
!!!RDF**kern: i = editorial accidental
!!!RDF**kern: l = terminal long
!!!ENC: Benjamin Ory
!!!END: 2023/10/2
!!!EED: Benjamin Ory
!!!EEV: 2023/10/02
!!!YEC: Copyright 2023 Benjamin Ory, All Rights Reserved
!!!ONB: Translated from MusicXML on 2023/10/02
